X:0982
T:Peggy wi' the gowden Hair.
M:C
L:1/8
Q:1/4=108
I: || ||
Z:Jack Campin * www.campin.me.uk * 2009
K:D
d| F2        F2  (A>B)(AF)|(d>B)(A>F) E3 D|(AB)(de) ({de})(f>e)(dA)   |B2(BA) F3
A|(de)({de})(fe) (dB)`(AF)| G2   F2   E2ed| d2 (cB)        A2  (DE/G/)|F2 E2  D3 ||
A| de````````fg   f2   ed | FG```AB   A3 F| de``fg         f2   ed    |ba`gf  e2dB|
   de````````fe   dc```AF | G2   F2   E2fe| d2  cB         AF  (DE/G/)|F2 E2  D3 |]
<end>
<start>
